public/ember-cli-visualeditor/styles/themes/apex/images/icons/noWikiText-ltr.svg

<?xml version="1.0" encoding="utf-8"?>
<svg xmlns="http://www.w3.org/2000/svg" width="24" height="24" viewBox="0 0 24 24">
    <g>
        <path d="M16 14l2 2v-11h-4v2h2zm0 2l-7-7-2-2-1-1-1-1-3-3-1 1 2 2h-1v14h4v-2h-2v-10h1l2 2v10h4v-2h-2v-6l6 6h-1v2h3l4 4 1-1-4-4zm-5-9v-2h-4l2 2zm8-2v2h2v10h-2l2 2h2v-14z"/>
    </g>
</svg>

<?xml version="1.0" encoding="utf-8"?>
<svg xmlns="http://www.w3.org/2000/svg" width="24" height="24" viewBox="0 0 24 24">
    <g>
        <path d="M16 14l2 2V5h-4v2h2zm0 2L9 9 7 7 6 6 5 5 2 2 1 3l2 2H2v14h4v-2H4V7h1l2 2v10h4v-2H9v-6l6 6h-1v2h3l4 4 1-1-4-4zm-5-9V5H7l2 2zm8-2v2h2v10h-2l2 2h2V5z"/>
    </g>
</svg>
